!!!COM: Frank Martin
!!!OTL: [T540_Mai-w11p3h2m3-h3m4]
**kern	**kern	**dynam	**kern	**dynam	**kern	**dynam
*grp:A	*grp:A	*grp:A	*grp:B	*grp:B	*grp:A	*grp:A
*part3	*part3	*part3	*part2	*part2	*part1	*part1
*staff4	*staff3	*	*staff2	*	*staff1	*
*I"Piano	*	*	*I"Violoncello	*	*I"Violin	*
*I'Pno.	*	*	*I'Vc.	*	*I'Vln.	*
!!pagebreak:original
*clefF4	*clefG2	*	*clefC4	*	*clefG2	*
*k[b-]	*k[b-]	*	*k[b-]	*	*k[b-]	*
*F:	*F:	*	*F:	*	*F:	*
*M4/4	*M4/4	*	*M4/4	*	*M4/4	*
=1	=1	=1	=1	=1	=1	=1
!	!	!	!	!LO:DY:ed=brack	!LO:TX:t=[quarter]=126	!LO:DY:ed=brack
!	!	!LO:DY:ed=brack	!	!LO:DY:t=poco menop %s	!	!LO:DY:t=%s un poco marcato
]4CC ]4GG	]4c ]4g	ppp	(4g~	p	]4G ]4d	ppp
4CC 4GG	4c 4g	.	(8.gL	.	4G 4d	.
.	.	.	16aJk))	.	.	.
4CC 4GG	4c 4g	.	(8gL	.	4G 4d	.
.	.	.	8f	.	.	.
[4CC [4GG	[4c [4g	.	8e	.	[4G [4d	.
.	.	.	8gJ)	.	.	.
=2	=2	=2	=2	=2	=2	=2
4CC] 4GG]	4c] 4g]	.	(4.f	.	4G] 4d]	.
4CC 4GG	4c 4g	.	.	.	4G 4d	.
.	.	.	8e	.	.	.
2CC 2GG	2c 2g	.	4c)	.	2G 2e	.
.	.	.	(8gL	.	.	.
.	.	.	8fJ)	.	.	.
=3	=3	=3	=3	=3	=3	=3
.	.	.	(8qqe/L	.	.	.
.	.	.	8qqf/J	.	.	.
2CC 2GG	2c 2g	.	8eL	.	2G 2d	.
.	.	.	8d	.	.	.
.	.	.	8e	.	.	.
.	.	.	8fJ)	.	.	.
2CC 2GG	2c 2g	.	(8.gL	.	2G 2e	.
.	.	.	16aJk	.	.	.
.	.	.	16gLL	.	.	.
.	.	.	16f	.	.	.
.	.	.	16e	.	.	.
.	.	.	16gJJ)	.	.	.
=4	=4	=4	=4	=4	=4	=4
4CC 4GG	4c 4g	.	(8fL	.	4G 4d	.
.	.	.	24gL	.	.	.
.	.	.	24f	.	.	.
.	.	.	24eJJ	.	.	.
2CC 2GG	2c 2g	.	8fL	.	2G 2d	.
.	.	.	8gJ)	.	.	.
.	.	.	(4b-	.	.	.
[4CC [4GG	[4c [4g	.	8ccL	.	[4G [4f	.
.	.	.	8b-J)	.	.	.
=5	=5	=5	=5	=5	=5	=5
4CC] 4GG]	4c] 4g]	.	(4g~	.	4G] 4f]	.
4CC 4GG	4c 4g	.	(8.gL	.	4G 4e	.
.	.	.	16aJk))	.	.	.
4CC 4GG	4c 4g	.	(8gL	.	4G 4d	.
.	.	.	8f	.	.	.
[4CC [4GG	[4c [4g	.	8e	.	[4G [4f	.
.	.	.	8fJ)	.	.	.
!!linebreak:original
=6	=6	=6	=6	=6	=6	=6
*	*	*	*	*	*^	*
4CC] 4GG]	4c] 4g]	.	2.g	.	4G] 4f]	4ryy	.
4CC 4GG	4c 4g	.	.	.	12dL	4G	.
.	.	.	.	.	12e	.	.
.	.	.	.	.	12fJ	.	.
*	*	*	*	*	*v	*v	*
2CC 2GG	2c 2g	.	.	.	2G 2e	.
.	.	.	(8cL	.	.	.
.	.	.	8dJ)	.	.	.
!!LO:REH:t=3
=7	=7	=7	=7	=7	=7	=7
.	.	.	(8qqe/L	.	.	.
.	.	.	8qqf/J	.	.	.
!	!	!LO:DY:t=poco menop %s	!	!	!	!LO:DY:t=poco menop %s
4CC 4GG	4c 4g	pp	8eL	.	4G 4d	pp
.	.	.	8d)	.	.	.
[4CC [4GG	[4c [4g	.	(8e'	.	[4G [4d	.
.	.	.	8f'J)	.	.	.
8CCL] 8GG]	8cL] 8g]	.	(8.gL	.	8GL] 8d]	.
8CC 8GG	8c 8g	.	.	.	8G 8d	.
.	.	.	16aJk)	.	.	.
8CC 8GG	8c 8g	.	(16gLL	.	8G 8d	.
.	.	.	16f	.	.	.
8CCJ 8GG	8cJ 8g	.	16e	.	8GJ 8d	.
.	.	.	16gJJ)	.	.	.
=8	=8	=8	=8	=8	=8	=8
8CC 8GG	8c 8g	.	(8fL	.	8G 8d	.
4CC 4GG	4c 4g	.	24gL	.	4G 4d	.
.	.	.	24f	.	.	.
.	.	.	24eJJ)	.	.	.
.	.	.	(8f'L	.	.	.
[8CC [8GG	[8c [8g	.	8g'J)	.	[8G [8d	.
*	*	*	*clefG2	*	*	*
8CCL] 8GG]	8cL] 8g]	.	4b-	.	8GL] 8d]	.
8CCJ 8GG	8cJ 8g	.	.	.	8GJ 8d	.
4CC 4GG	4c 4g	.	(8ccL	.	4G 4d	.
.	.	.	8b-J)	.	.	.
=9	=9	=9	=9	=9	=9	=9
8CCL 8GG	8cL 8g	<	4g	.	8GL 8e	<
8CC 8GG	8c 8g	.	.	.	8G 8e	.
8CC 8GG	8c 8g	.	(8.gL	<	8G 8e	.
[8CCJ [8GG	[8cJ [8g	.	.	.	[8GJ [8e	.
.	.	.	16aJk)	.	.	.
8CCL] 8GG]	8cL] 8g]	.	(8b-L	.	8GL] 8e]	.
8CCJ 8GG	8cJ 8g	.	8cc)	.	8GJ 8e	.
4CC 4GG	4c 4g	[	(8dd'	.	4G 4e-X	[
.	.	.	8ff'J)	[	.	.
=10	=10	=10	=10	=10	=10	=10
4CC 4GG	4c 4g	>	(4.ee-X	.	4G 4d	.
[4CC [4GG	[4c [4g	.	.	.	[4G [4d	>
.	.	.	8dd)	>	.	.
8CCL] 8GG]	8cL] 8g]	.	(8ccL	.	8GL] 8d]	.
8CC 8GG	8c 8g	.	8b-J	.	8G 8e-X	.
8CC 8GG	8c 8g	]	4dd)	]	8G 8e-	.
8CCJ 8GG	8cJ 8g	.	.	.	8GJ 8e-	]
=	=	=	=	=	=	=
*-	*-	*-	*-	*-	*-	*-
!!!system-decoration: s1,s2[({(s3,s4)})]
